X:1
T:Jesu Redemptor Omnium
T:Jesu Redemptor Omnium
T:Johann Stadlmayr 1575 - 1648
C:Johann Stadlmayr 1575 - 1648
%%score [ 1 2 3 4 ]
L:1/8
Q:1/4=180
M:4/4
K:Eb
V:1 treble nm="Soprano" snm="S"
V:2 treble nm="Alto" snm="A1"
V:3 treble-8 nm="Tenor" snm="T/A2"
V:4 bass nm="Bass" snm="B"
V:1
 z8 | z8 | z9 | z8 | z9 | z11 | z8 | z8 | z9 | z8 | z8 | z9 ||[M:4/2] z16 | z16 | z8 B8 | %15
w: ||||||||||||||2.Tu|
 c8 d4 B4 | B4 A4 G4 F4 | z4 E4 G4 B4 | c4 e4 d2 c2 c4- | c4 =B4 c8 | z16 | z4 c4 c4 c4 | %22
w: lu- men et|splen- dor Pa- tris,|tu spes pe-|ren- nis om- * *|* ni- um,||quas fun- dunt|
 _d8 c4 =A4 | B4 c4 _d4 c4 | B8 _A4 B4- | B4 A4 G4 G4 | F16 || z8 | z8 | z9 | z8 | z9 | z11 | z8 | %34
w: pre- ces, tu-|i per or- bem|ser- * *|* * * vu-|li.||||||||
 z8 | z9 | z8 | z8 | z9 ||[M:4/2] z16 | z16 | z8 B8 | c8 d4 B4 | B4 A4 G4 F4 | z4 E4 G4 B4 | %45
w: |||||||4.Te-|sta- tur hoc|prae- sens di- es,|cur- rans per|
 c4 e4 d2 c2 c4- | c4 =B4 c8 | z16 | z4 c4 c4 c4 | _d8 c4 =A4 | B4 c4 _d4 c4 | B8 _A4 B4- | %52
w: an- ni cir- * *|* cu- lum,||e si- nu|Pa- tris, mun-|di sa- lus ad-|ve- * *|
 B4 A4 G4 G4 | F16 || z8 | z8 | z9 | z8 | z9 | z11 | z8 | z8 | z9 | z8 | z8 | z9 ||[M:4/2] z16 | %67
w: * * * ne-|ris.||||||||||||||
 z16 | z8 B8 | c8 d4 B4 | B4 A4 G4 F4 | z4 E4 G4 B4 | c4 e4 d2 c2 c4- | c4 =B4 c8 | z16 | %75
w: |6.Et|nos, be- a-|ta quos sa- cri,|ri- ga- vit|un- da san- * *|* gui- nis,||
 z4 c4 c4 c4 | _d8 c4 =A4 | B4 c4 _d4 c4 | B8 _A4 B4- | B4 A4 G4 G4 | F16 || z8 | z8 | z9 | z8 | %85
w: ob di- em|tu- i, hym-|ni tri- bu- tum|sol- * *|* * * vi-|mus.|||||
 z9 | z11 | z8 | z8 | z9 | z8 | z8 | z9 || z12 |] %94
w: |||||||||
V:2
 z8 | z8 | z9 | z8 | z9 | z11 | z8 | z8 | z9 | z8 | z8 | z9 ||[M:4/2] E8 F8 | G4 B4 B4 A4 | G8 F8 | %15
w: ||||||||||||2.Tu lu-|men et splen- dor|Pa- tris,|
 z16 | z16 | z4 C4 E4 G4 | A12 F4 | G4 G4 =E8 | G4 A8- B4 | G4 A4 G4 =A4 | B8 =A4 F4 | %23
w: ||tu spes pe-|ren- nis|om- ni- um,|in- ten- *|de quas fun- dunt|pre- ces, tu-|
 G4 A4 B4 A2 G2 | F12 G4 | =E4 F8 E4 | F16 || z8 | z8 | z9 | z8 | z9 | z11 | z8 | z8 | z9 | z8 | %37
w: i per or- * *|* bem|ser- * vu-|li.|||||||||||
 z8 | z9 ||[M:4/2] E8 F8 | G4 B4 B4 A4 | G8 F8 | z16 | z16 | z4 C4 E4 G4 | A12 F4 | G4 G4 =E8 | %47
w: ||4.Te- sta-|tur hoc prae- sens|di- es,|||cur- rans per|an- ni|cir- cu- lum,|
 G4 A8- B4 | G4 A4 G4 =A4 | B8 =A4 F4 | G4 A4 B4 A2 G2 | F12 G4 | =E4 F8 E4 | F16 || z8 | z8 | z9 | %57
w: quod so- *|lus e si- nu|Pa- tris, mun-|di sa- lus _ _|_ ad-|ve- * ne-|ris.||||
 z8 | z9 | z11 | z8 | z8 | z9 | z8 | z8 | z9 ||[M:4/2] E8 F8 | G4 B4 B4 A4 | G8 F8 | z16 | z16 | %71
w: |||||||||6.Et nos,|be- a- ta quos|sa- cri,|||
 z4 C4 E4 G4 | A12 F4 | G4 G4 =E8 | G4 A8- B4 | G4 A4 G4 =A4 | B8 =A4 F4 | G4 A4 B4 A2 G2 | %78
w: ri- ga- vit|un- da|san- gui- nis,|na- ta- *|lis ob di- em|tu- i, hym-|ni tri- bu- * *|
 F12 G4 | =E4 F8 E4 | F16 || z8 | z8 | z9 | z8 | z9 | z11 | z8 | z8 | z9 | z8 | z8 | z9 || z12 |] %94
w: * tum|sol- * vi-|mus.||||||||||||||
V:3
 !stemless!E2 !stemless!F2 !stemless!G2- !stemless!B2 | %1
w: 1.Je- su Re- *|
 !stemless!B2- !stemless!A2 !stemless!G2- !stemless!F2 | %2
w: dem- * ptor _|
 !stemless!G2 !stemless!A2 !stemless!G2 !stemless!F3 | %3
w: _ om- ni- um,|
 !stemless!E2- !stemless!G2 !stemless!B2 !stemless!c2 | %4
w: quem _ lu- cis|
 !stemless!c2 !stemless!B2 !stemless!c3- !stemless!d2 | %5
w: an- t'o- ri- *|
 !stemless!e2 !stemless!d2- !stemless!c2 !stemless!B2 !stemless!c3 | %6
w: * gi _ _ nem,|
 !stemless!c2- !stemless!d2 !stemless!B2 !stemless!A2- | %7
w: Pa- * trem pa-|
 !stemless!B2 !stemless!G2 !stemless!F2- !stemless!E2 | %8
w: * ter- nae _|
 !stemless!F2 !stemless!F2- !stemless!G2 !stemless!G3 | %9
w: glo- ri- * ae,|
 !stemless!E2 !stemless!F2 !stemless!G2- !stemless!B2 | %10
w: Pa- ter su- *|
 !stemless!B2- !stemless!A2 !stemless!G2- !stemless!F2 | %11
w: pre- * mus _|
 !stemless!G2 !stemless!A2 !stemless!G2 !stemless!F3 ||[M:4/2] z16 | e8 f8 | g4 e4 e4 d4 | %15
w: _ e- di- dit.||2.Tu lu-|men et splen- dor|
 c8 B4 B4 | c4 d4 e4 d4 | e6 d2 c4 d4 | e4 c4 f4 f4 | e4 d4 c8 | =e8 f8 | =e4 f4 g4 f4 | f8 f8 | %23
w: Pa- tris, tu|spes pe- ren- nis|om- ni- um, tu|spes pe- ren- nis|om- ni- um,|in- ten-|de quas fun- dunt|pre- ces,|
 z8 z4 c4 | _d4 e4 f4 d4 | c8 c8 | =A16 || !stemless!E2 !stemless!F2 !stemless!G2- !stemless!B2 | %28
w: tu-|i per or- bem|ser- vu-|li.|3.Me- men- to, _|
 !stemless!B2- !stemless!A2 !stemless!G2- !stemless!F2 | %29
w: re- * rum _|
 !stemless!G2 !stemless!A2 !stemless!G2 !stemless!F3 | %30
w: _ con- di- tor,|
 !stemless!E2- !stemless!G2 !stemless!B2 !stemless!c2 | %31
w: no- * stri quod|
 !stemless!c2 !stemless!B2 !stemless!c3- !stemless!d2 | %32
w: o- lim cor- *|
 !stemless!e2 !stemless!d2- !stemless!c2 !stemless!B2 !stemless!c3 | %33
w: * po- * * ris,|
 !stemless!c2- !stemless!d2 !stemless!B2 !stemless!A2- | %34
w: sa- * cra- t'ab|
 !stemless!B2 !stemless!G2 !stemless!F2- !stemless!E2 | %35
w: _ al- vo _|
 !stemless!F2 !stemless!F2- !stemless!G2 !stemless!G3 | %36
w: vir- gi- * nis,|
 !stemless!E2 !stemless!F2 !stemless!G2- !stemless!B2 | %37
w: na- scen- do, _|
 !stemless!B2- !stemless!A2 !stemless!G2- !stemless!F2 | %38
w: for- * mam _|
 !stemless!G2 !stemless!A2 !stemless!G2 !stemless!F3 ||[M:4/2] z16 | e8 f8 | g4 e4 e4 d4 | %42
w: _ sum- pse- ris.||4.Te- sta-|tur hoc prae- sens|
 c8 B4 B4 | c4 d4 e4 d4 | e6 d2 c4 d4 | e4 c4 f4 f4 | e4 d4 c8 | =e8 f8 | =e4 f4 g4 f4 | f8 f8 | %50
w: di- es, cur-|rans per an- ni|cir- cu- lum, cur-|rans per an- ni|cir- cu- lum,|quod so-|lus e si- nu|Pa- tris,|
 z8 z4 c4 | _d4 e4 f4 d4 | c8 c8 | =A16 || !stemless!E2 !stemless!F2 !stemless!G2- !stemless!B2 | %55
w: mun-|di sa- lus ad-|ve- ne-|ris.|5.Hunc as- tra, _|
 !stemless!B2- !stemless!A2 !stemless!G2- !stemless!F2 | %56
w: tel- * lus, _|
 !stemless!G2 !stemless!A2 !stemless!G2 !stemless!F3 | %57
w: _ ae- quo- ra,|
 !stemless!E2- !stemless!G2 !stemless!B2 !stemless!c2 | %58
w: hunc _ om- ne|
 !stemless!c2 !stemless!B2 !stemless!c3- !stemless!d2 | %59
w: quod cae- lo _|
 !stemless!e2 !stemless!d2- !stemless!c2 !stemless!B2 !stemless!c3 | %60
w: _ sub _ _ est,|
 !stemless!c2- !stemless!d2 !stemless!B2 !stemless!A2- | %61
w: sa- * lu- tis|
 !stemless!B2 !stemless!G2 !stemless!F2- !stemless!E2 | %62
w: _ au- cto- *|
 !stemless!F2 !stemless!F2- !stemless!G2 !stemless!G3 | %63
w: rem no- * vae,|
 !stemless!E2 !stemless!F2 !stemless!G2- !stemless!B2 | %64
w: no- vo sa- *|
 !stemless!B2- !stemless!A2 !stemless!G2- !stemless!F2 | %65
w: lu- * tat _|
 !stemless!G2 !stemless!A2 !stemless!G2 !stemless!F3 ||[M:4/2] z16 | e8 f8 | g4 e4 e4 d4 | %69
w: _ can- ti- co.||6.Et nos,|be- a- ta quos|
 c8 B4 B4 | c4 d4 e4 d4 | e6 d2 c4 d4 | e4 c4 f4 f4 | e4 d4 c8 | =e8 f8 | =e4 f4 g4 f4 | f8 f8 | %77
w: sa- cri, ri-|ga- vit un- da|san- gui- nis, ri-|ga- vit un- da|san- gui- nis,|na- ta-|lis ob di- em|tu- i,|
 z8 z4 c4 | _d4 e4 f4 d4 | c8 c8 | =A16 || !stemless!E2 !stemless!F2 !stemless!G2- !stemless!B2 | %82
w: hym-|ni tri- bu- tum|sol- vi-|mus.|7.Je- su ti- *|
 !stemless!B2- !stemless!A2 !stemless!G2- !stemless!F2 | %83
w: bi _ sit _|
 !stemless!G2 !stemless!A2 !stemless!G2 !stemless!F3 | %84
w: _ glo- ri- a,|
 !stemless!E2- !stemless!G2 !stemless!B2 !stemless!c2 | %85
w: qui _ na- tus|
 !stemless!c2 !stemless!B2 !stemless!c3- !stemless!d2 | %86
w: est de vir- *|
 !stemless!e2 !stemless!d2- !stemless!c2 !stemless!B2 !stemless!c3 | %87
w: * gi- * * ne,|
 !stemless!c2 !stemless!d2 !stemless!B2 !stemless!A2- | %88
w: cum _ pa- tr'et|
 !stemless!B2 !stemless!G2 !stemless!F2- !stemless!E2 | %89
w: _ al- mo _|
 !stemless!F2 !stemless!F2- !stemless!G2 !stemless!G3 | %90
w: spi- ri- * tu,|
 !stemless!E2 !stemless!F2 !stemless!G2- !stemless!B2 | %91
w: in sem- pi- *|
 !stemless!B2 !stemless!A2 !stemless!G2- !stemless!F2 | %92
w: ter- * na _|
 !stemless!G2 !stemless!A2 !stemless!G2 !stemless!F3 || %93
w: _ sae- cu- la.|
 !stemless!F2- !stemless!G2 !stemless!F2 !stemless!E3 !stemless!F3 |] %94
w: A- * * men. _|
V:4
 z8 | z8 | z9 | z8 | z9 | z11 | z8 | z8 | z9 | z8 | z8 | z9 ||[M:4/2] z16 | z16 | z8 z4 B,4 | %15
w: ||||||||||||||2.Tu|
 B,4 A,4 G,8 | F,4 F,4 G,4 B,4 | C12 B,4 | A,6 G,2 F,4 A,4 | G,4 G,4 C,8 | z4 C4 _D8 | %21
w: splen- dor Pa-|tris, tu spes pe-|ren- *|* * * nis|om- ni- um,|in- ten-|
 C4 F,4 =E,4 F,4 | B,,8 F,8 | z8 z4 A,,4 | B,,4 C,4 _D,4 B,,4 | C,8 C,8 | F,,16 || z8 | z8 | z9 | %30
w: de quas fun- dunt|pre- ces,|tu-|i per or- bem|ser- vu-|li.||||
 z8 | z9 | z11 | z8 | z8 | z9 | z8 | z8 | z9 ||[M:4/2] z16 | z16 | z8 z4 B,4 | B,4 A,4 G,8 | %43
w: |||||||||||hoc|prae- sens di-|
 F,4 F,4 G,4 B,4 | C12 B,4 | A,6 G,2 F,4 A,4 | G,4 G,4 C,8 | z4 C4 _D8 | C4 F,4 =E,4 F,4 | %49
w: es, cur- rans per|an- *|* * * ni|cir- cu- lum,|quod so-|lus e si- nu|
 B,,8 F,8 | z8 z4 A,,4 | B,,4 C,4 _D,4 B,,4 | C,8 C,8 | F,,16 || z8 | z8 | z9 | z8 | z9 | z11 | %60
w: Pa- tris,|mun-|di sa- lus ad-|ve- ne-|ris.|||||||
 z8 | z8 | z9 | z8 | z8 | z9 ||[M:4/2] z16 | z16 | z8 z4 B,4 | B,4 A,4 G,8 | F,4 F,4 G,4 B,4 | %71
w: ||||||||be-|a- ta quos|sa- * cri, ri-|
 C12 B,4 | A,6 G,2 F,4 A,4 | G,4 G,4 C,8 | z4 C4 _D8 | C4 F,4 =E,4 F,4 | B,,8 F,8 | z8 z4 A,,4 | %78
w: ga- vit|un- * * da|san- gui- nis,|na- ta-|lis ob di- em|tu- i,|hym-|
 B,,4 C,4 _D,4 B,,4 | C,8 C,8 | F,,16 || z8 | z8 | z9 | z8 | z9 | z11 | z8 | z8 | z9 | z8 | z8 | %92
w: ni tri- bu- tum|sol- vi-|mus.||||||||||||
 z9 || z12 |] %94
w: ||

